img/bisk/sm/Bisk_Logo_Light.svg

<svg xmlns="http://www.w3.org/2000/svg" width="297" height="75" viewBox="0 0 297 75">
  <g fill="#FFF" fill-rule="evenodd">
    <path d="M68.2203447 3.07142857C68.2573995 2.03180986 69.0966409 1.19754918 70.1424662 1.16071429L74.1902985 1.16071429C75.2373836 1.19466574 76.0782659 2.03055764 76.11242 3.07142857L76.11242 69.6785714C76.0782659 70.7194424 75.2373836 71.5553343 74.1902985 71.5892857L70.1424662 71.5892857C69.0966409 71.5524508 68.2573995 70.7181901 68.2203447 69.6785714L68.2203447 3.07142857 68.2203447 3.07142857zM92.2139303 61.0238095C92.7229033 60.4285714 93.2258884 59.7142857 93.7348614 59.1130952 94.7468195 57.8035714 95.8605721 57 97.2797086 58.2083333 97.9862829 58.8035714 105.375373 65.8571429 114.387189 65.8571429 122.584648 65.8571429 127.949822 60.7261905 127.949822 54.7857143 127.949822 47.8452381 121.878074 43.7202381 110.237562 38.8869048 99.1000355 34.0595238 92.4235075 29.5297619 92.4235075 18.0535714 92.4235075 11.2142857 97.8904762.142857143 113.980011.142857143 120.115272.225752433 126.106612 2.00218306 131.285092 5.27380952 131.883884 5.57738095 133.081468 6.78571429 131.883884 8.69642857 131.476706 9.29166667 131.075515 10.0059524 130.686301 10.6071429 129.776137 12.0178571 128.764179 12.3928571 127.141453 11.5119048 126.434879 11.1071429 120.057747 6.88095238 113.884204 6.88095238 103.153856 6.88095238 99.9143923 13.7202381 99.9143923 17.952381 99.9143923 24.6964286 105.075977 28.6190476 113.57882 32.1369048 127.243248 37.672619 136.051475 42.8035714 136.051475 54.4761905 136.051475 64.9404762 126.027701 72.5892857 114.189588 72.5892857 102.243692 72.5892857 94.1480277 65.6488095 92.8306859 64.4404762 92.0043532 63.7440476 91.0163468 62.9404762 92.2139303 61.0238095L92.2139303 61.0238095zM150.703909 3.57142857C150.694118 2.92755435 150.947105 2.30719458 151.405164 1.85185474 151.863222 1.3965149 152.487285 1.14502913 153.135004 1.1547619L156.069083 1.1547619C157.404991 1.17082145 158.484022 2.24344939 158.500178 3.57142857L158.500178 32.047619 190.080455 2.16071429C190.571885 1.5980236 191.257777 1.23905844 192.002576 1.1547619L196.960572 1.1547619C198.756947 1.1547619 199.792857 3.16666667 198.158156 4.67857143L166.1707 34.3630952 199.703038 68.4761905C200.139402 69.0941761 200.184684 69.9049275 199.819822 70.5671338 199.45496 71.22934 198.743326 71.6279816 197.984506 71.5952381L192.810945 71.5952381C192.146845 71.5825841 191.509387 71.3333383 191.01457 70.8928571L158.500178 37.1785714 158.500178 69.172619C158.484022 70.5005982 157.404991 71.5732262 156.069083 71.5892857L153.135004 71.5892857C152.487285 71.5990185 151.863222 71.3475327 151.405164 70.8921929 150.947105 70.436853 150.694118 69.8164933 150.703909 69.172619L150.703909 3.57142857 150.703909 3.57142857zM39.8795309 35.7738095C44.6399254 33.0595238 49.8015103 27.4404762 49.8015103 19.702381 49.8015103 9.13690476 41.4184257 1.19047619 29.053376 1.19047619L6.89808102 1.19047619C5.83652261 1.19047619 4.97595949 2.04593211 4.97595949 3.10119048L4.97595949 34.5238095C4.97576452 35.1185462 5.29551829 35.6679832 5.81426795 35.9642857L11.981823 39.4880952C12.2351301 39.6325616 12.5221077 39.708498 12.8141436 39.7083333L29.0713397 39.7083333C36.9634151 39.7083333 43.5441365 44.9404762 43.5441365 52.0833333 43.5441365 59.2261905 38.3825515 64.6488095 31.2150142 64.8571429 30.9377737 64.8624984 30.6661977 64.936125 30.4246091 65.0714286L20.9337598 70.4940476C20.6965109 70.6276894 20.5800606 70.9037982 20.6504986 71.1656727 20.7209365 71.4275472 20.9604701 71.609038 21.2331557 71.6071429L29.9395878 71.6071429C42.999236 71.6071429 52.005064 63.4583333 52.005064 52.1845238 52.0290156 42.9166667 45.244705 37.9821429 39.8795309 35.7738095L39.8795309 35.7738095zM29.053376 32.7380952L12.5746269 32.7380952 12.5746269 8.10119048 29.0713397 8.10119048C36.8556326 8.10119048 41.2148365 12.9285714 41.2148365 20.172619 41.1968728 27.2202381 36.8436567 32.7380952 29.053376 32.7380952L29.053376 32.7380952z"/>
    <path d="M.335323383 57.7380952L.335323383 42.2619048C.337261162 41.670169.655794498 41.1241586 1.1714924 40.8285949 1.6871903 40.5330313 2.32213988 40.5325688 2.83827292 40.827381L16.3470149 48.5654762 29.8557569 56.3035714C30.3719442 56.6004173 30.6898168 57.1482699 30.6898168 57.7410714 30.6898168 58.3338729 30.3719442 58.8817255 29.8557569 59.1785714L16.3470149 66.9166667 2.83827292 74.6547619C2.32213988 74.949574 1.6871903 74.9491116 1.1714924 74.6535479.655794498 74.3579843.337261162 73.8119739.335323383 73.2202381L.335323383 57.7380952.335323383 57.7380952zM284.429365 35.910767C289.18976 33.1964812 294.351345 27.5774336 294.351345 19.8393384 294.351345 9.2738622 285.96826 1.32743363 273.60321 1.32743363L251.447915 1.32743363C250.386357 1.32743363 249.525794 2.18288955 249.525794 3.23814791L249.525794 34.660767C249.525599 35.2555037 249.845353 35.8049407 250.364102 36.1012432L256.531657 39.6250527C256.784964 39.7695191 257.071942 39.8454555 257.363978 39.8452908L273.621174 39.8452908C281.513249 39.8452908 288.093971 45.0774336 288.093971 52.2202908 288.093971 59.3631479 282.932386 64.785767 275.764848 64.9941003 275.487608 64.9994559 275.216032 65.0730825 274.974443 65.208386L265.483594 70.6310051C265.246345 70.7646468 265.129895 71.0407557 265.200333 71.3026301 265.270771 71.5645046 265.510304 71.7459955 265.78299 71.7441003L274.489422 71.7441003C287.54907 71.7441003 296.554898 63.5952908 296.554898 52.3214812 296.57885 43.0536241 289.794539 38.1191003 284.429365 35.910767L284.429365 35.910767zM273.60321 32.8750527L257.124461 32.8750527 257.124461 8.23814791 273.621174 8.23814791C281.405467 8.23814791 285.764671 13.0655289 285.764671 20.3095765 285.746707 27.3571955 281.393491 32.8750527 273.60321 32.8750527L273.60321 32.8750527z"/>
    <path d="M244.845238,57.6182243 L244.845238,42.1420339 C244.847176,41.5502981 245.165709,41.0042877 245.681407,40.708724 C246.197105,40.4131604 246.832055,40.4126979 247.348188,40.70751 L260.85693,48.4456053 L274.365672,56.1837005 C274.881859,56.4805464 275.199732,57.028399 275.199732,57.6212005 C275.199732,58.214002 274.881859,58.7618546 274.365672,59.0587005 L260.85693,66.7967958 L247.348188,74.534891 C246.832055,74.8297031 246.197105,74.8292407 245.681407,74.533677 C245.165709,74.2381134 244.847176,73.692103 244.845238,73.1003672 L244.845238,57.6182243 L244.845238,57.6182243 Z"/>
  </g>
</svg>

<svg xmlns="http://www.w3.org/2000/svg" width="297" height="75"><g fill="#FFF" fill-rule="evenodd"><path d="M68.22 3.071a1.988 1.988 0 0 1 1.922-1.91h4.048a1.982 1.982 0 0 1 1.922 1.91V69.68a1.982 1.982 0 0 1-1.922 1.91h-4.048a1.988 1.988 0 0 1-1.922-1.91V3.07zm23.994 57.953c.509-.595 1.012-1.31 1.52-1.91 1.013-1.31 2.127-2.114 3.546-.906.706.596 8.095 7.65 17.107 7.65 8.198 0 13.563-5.132 13.563-11.072 0-6.94-6.072-11.066-17.712-15.9C99.1 34.06 92.424 29.53 92.424 18.055c0-6.84 5.466-17.911 21.556-17.911a33.244 33.244 0 0 1 17.305 5.13c.599.304 1.796 1.513.599 3.423-.407.596-.808 1.31-1.198 1.911-.91 1.41-1.922 1.786-3.545.905-.706-.405-7.083-4.631-13.257-4.631-10.73 0-13.97 6.84-13.97 11.071 0 6.744 5.162 10.667 13.665 14.185 13.664 5.536 22.472 10.667 22.472 22.34 0 10.463-10.023 18.112-21.861 18.112-11.946 0-20.042-6.94-21.36-8.149-.826-.696-1.814-1.5-.616-3.416zm58.49-57.453a2.374 2.374 0 0 1 .701-1.72 2.403 2.403 0 0 1 1.73-.696h2.934A2.454 2.454 0 0 1 158.5 3.57v28.477L190.08 2.16a3 3 0 0 1 1.923-1.006h4.958c1.796 0 2.832 2.012 1.197 3.524l-31.987 29.684 33.532 34.113c.436.618.482 1.429.117 2.091a1.996 1.996 0 0 1-1.835 1.028h-5.174a2.782 2.782 0 0 1-1.796-.702L158.5 37.179v31.994a2.454 2.454 0 0 1-2.43 2.416h-2.935a2.403 2.403 0 0 1-1.73-.697 2.374 2.374 0 0 1-.701-1.72v-65.6zM39.88 35.774c4.76-2.714 9.922-8.334 9.922-16.072 0-10.565-8.384-18.512-20.749-18.512H6.898a1.916 1.916 0 0 0-1.922 1.911v31.423c0 .595.32 1.144.838 1.44l6.168 3.524c.253.145.54.22.832.22h16.257c7.892 0 14.473 5.232 14.473 12.375S38.383 64.65 31.215 64.857a1.684 1.684 0 0 0-.79.214l-9.491 5.423a.594.594 0 0 0 .3 1.113h8.706c13.06 0 22.065-8.149 22.065-19.422.024-9.268-6.76-14.203-12.125-16.411zm-10.827-3.036H12.575V8.101H29.07c7.785 0 12.144 4.828 12.144 12.072-.018 7.047-4.371 12.565-12.162 12.565z"/><path d="M.335 57.738V42.262c.002-.592.32-1.138.836-1.433a1.68 1.68 0 0 1 1.667-.002l13.509 7.738 13.509 7.739c.516.296.834.844.834 1.437 0 .593-.318 1.14-.834 1.438l-13.509 7.738-13.509 7.738a1.68 1.68 0 0 1-1.667-.001 1.659 1.659 0 0 1-.836-1.434V57.738zM284.43 35.911c4.76-2.715 9.922-8.334 9.922-16.072 0-10.565-8.383-18.512-20.748-18.512h-22.155a1.916 1.916 0 0 0-1.922 1.911v31.423c0 .595.32 1.144.838 1.44l6.168 3.524c.253.145.54.22.832.22h16.257c7.892 0 14.473 5.232 14.473 12.375s-5.162 12.566-12.33 12.774a1.684 1.684 0 0 0-.79.214l-9.49 5.423a.594.594 0 0 0 .299 1.113h8.706c13.06 0 22.066-8.149 22.066-19.423.024-9.267-6.76-14.202-12.126-16.41zm-10.826-3.036h-16.479V8.238h16.497c7.784 0 12.144 4.828 12.144 12.072-.018 7.047-4.372 12.565-12.162 12.565z"/><path d="M244.845 57.618V42.142c.002-.592.32-1.138.836-1.433a1.68 1.68 0 0 1 1.667-.001l13.509 7.738 13.509 7.738c.516.297.834.844.834 1.437 0 .593-.318 1.14-.834 1.438l-13.51 7.738-13.508 7.738a1.68 1.68 0 0 1-1.667-.001 1.659 1.659 0 0 1-.836-1.434V57.618z"/></g></svg>
